assets/Scarf/Flat/scarf_flat.svg

<svg width="32" height="32" viewBox="0 0 32 32" fill="none" xmlns="http://www.w3.org/2000/svg">
<path d="M2.5 22C2.22386 22 2 22.2239 2 22.5C2 22.7761 2.22386 23 2.5 23H5.5C5.77614 23 6 22.7761 6 22.5C6 22.2239 5.77614 22 5.5 22H2.5Z" fill="#990838"/>
<path d="M2.5 26C2.22386 26 2 26.2239 2 26.5C2 26.7761 2.22386 27 2.5 27H5.5C5.77614 27 6 26.7761 6 26.5C6 26.2239 5.77614 26 5.5 26H2.5Z" fill="#990838"/>
<path d="M2 24.5C2 24.2239 2.22386 24 2.5 24H5.5C5.77614 24 6 24.2239 6 24.5C6 24.7761 5.77614 25 5.5 25H2.5C2.22386 25 2 24.7761 2 24.5Z" fill="#990838"/>
<path d="M2.5 28C2.22386 28 2 28.2239 2 28.5C2 28.7761 2.22386 29 2.5 29H5.5C5.77614 29 6 28.7761 6 28.5C6 28.2239 5.77614 28 5.5 28H2.5Z" fill="#990838"/>
<path d="M5.98743 20.9745C4.43806 20.9745 4.02856 21.9006 4.02856 23.0403V28.989C4.02856 29.6835 4.35836 30.0567 4.9992 30.0567C16.7345 30.0567 24.2349 21.5461 26.271 16.2376C28.7233 9.1833 22.4778 3.00623 16.9929 3.00623C10.6675 3.00623 9.02674 8.36054 8.99706 11.0377H10.9916C10.9916 10.0227 11.9176 7.01305 15.9779 7.01305C19.2261 7.01305 20.0025 10.3728 19.9847 12.0527C19.9847 17.8047 10.8135 20.9745 5.98743 20.9745Z" fill="#CA0B4A"/>
<path d="M28 16.0341C29.9315 16.0341 30.0619 16.6639 30.0619 19.5938V22.4062C30.0619 24.126 29.9781 25.0009 27.8125 25.0009C27.0486 25.0009 20.9054 25.1723 15.9663 23.957C8.61218 21.9253 5.979 17.5482 5.979 11.9754C5.979 5.10735 11.0739 2.33093 15.9975 2.33093C22.3296 2.33093 25.829 7.45694 26.2891 9.99617C25.9766 9.18758 25.1916 8.03508 24.2123 7.02209C22.6667 5.35964 20.0089 4.00978 17.0487 4.00978C13.6246 4.00978 11.4981 6.14207 11.4981 9.30556C11.4981 16.55 24.412 16.0341 26.105 16.0341H28Z" fill="#F8312F"/>
</svg>

<svg xmlns="http://www.w3.org/2000/svg" width="32" height="32" fill="none"><path fill="#990838" d="M2.5 22a.5.5 0 0 0 0 1h3a.5.5 0 0 0 0-1h-3ZM2.5 26a.5.5 0 0 0 0 1h3a.5.5 0 0 0 0-1h-3ZM2 24.5a.5.5 0 0 1 .5-.5h3a.5.5 0 0 1 0 1h-3a.5.5 0 0 1-.5-.5ZM2.5 28a.5.5 0 0 0 0 1h3a.5.5 0 0 0 0-1h-3Z"/><path fill="#CA0B4A" d="M5.987 20.974c-1.549 0-1.958.927-1.958 2.066v5.949c0 .694.33 1.068.97 1.068 11.736 0 19.236-8.51 21.272-13.82 2.452-7.054-3.793-13.23-9.278-13.23-6.325 0-7.966 5.354-7.996 8.03h1.995c0-1.014.926-4.024 4.986-4.024 3.248 0 4.025 3.36 4.007 5.04 0 5.752-9.171 8.921-13.998 8.921Z"/><path fill="#F8312F" d="M28 16.034c1.931 0 2.062.63 2.062 3.56v2.812c0 1.72-.084 2.595-2.25 2.595-.763 0-6.907.171-11.846-1.044-7.354-2.032-9.987-6.409-9.987-11.982 0-6.868 5.095-9.644 10.018-9.644 6.333 0 9.832 5.126 10.292 7.665-.312-.808-1.097-1.96-2.077-2.974C22.667 5.36 20.01 4.01 17.05 4.01c-3.424 0-5.55 2.132-5.55 5.296 0 7.244 12.913 6.728 14.606 6.728H28Z"/></svg>
